X:1
T:AULD LANG SYNE
M:C
L:1/8
Q:80
C:R.BURNS
S:
K:HP
A2 | \
d3{g}d{g}d2f2 | \
{g}e3de2f2 | \
d3{g}df2a2 |
B6{g}B2 | \
a2f{g}f2d2 | \
{g}e3de2fe |
d3B2{g}BA2 | \
{Gdc}d6B2 | \
a3f{g}f2d2 |
e3de2B2 | \
a3f{g}f2a2 | \
B6d2 |
A3f{g}f2d2 | \
{g}e3de2fe | \
d3B{g}B2A2 |
{Gdc}d6|]
